Komodo/status/24/weather-clouds-night.svg

<?xml version="1.0" encoding="UTF-8" standalone="no"?>
<!-- Created with Inkscape (http://www.inkscape.org/) -->
<svg
   xmlns:svg="http://www.w3.org/2000/svg"
   xmlns="http://www.w3.org/2000/svg"
   version="1.0"
   width="24"
   height="24"
   id="svg3186">
  <defs
     id="defs3188" />
  <path
     d="M 10.896943,5.5121501 C 9.2068308,5.7957946 7.6985879,6.8077715 6.7108105,8.1983963 C 5.7189147,9.5949725 5.3053163,11.380774 5.5861778,13.071122 C 5.8663082,14.757048 6.8194262,16.290192 8.2103208,17.287903 C 9.6035868,18.287304 11.400091,18.694937 13.083729,18.412379 C 14.766503,18.129984 16.308065,17.155396 17.301102,15.757368 C 17.384583,15.639851 17.4574,15.511805 17.48854,15.351307 C 17.519681,15.190809 17.487005,15.000785 17.394821,14.851541 C 17.210452,14.553052 16.94194,14.49822 16.707546,14.44548 C 16.238757,14.34 15.658719,14.334017 15.051836,14.320538 C 14.444954,14.30706 13.832473,14.263462 13.396127,14.164361 C 13.177954,14.11481 13.012953,14.067875 12.92753,14.008184 C 12.842107,13.948493 12.84327,13.90894 12.833811,13.852007 L 12.802571,13.852007 C 12.808028,12.841145 12.504462,12.081307 12.115295,11.603057 C 11.707738,11.102206 11.232237,10.807765 11.178101,10.759701 C 11.085279,10.677266 11.013094,10.402649 11.084382,9.9163445 C 11.155671,9.4300402 11.331914,8.8201316 11.521739,8.2296318 C 11.711565,7.639132 11.915476,7.1012732 11.959096,6.6053898 C 11.980907,6.3574481 11.969066,6.0876231 11.771658,5.8245043 C 11.574249,5.5613855 11.188933,5.4631498 10.896943,5.5121501 z M 13.024748,11.500126 C 11.877727,11.49033 10.825808,12.05134 10.245094,12.798941 C 9.2209806,12.253943 7.7166471,12.72983 7.3344286,13.617558 C 7.0220592,14.036804 7.5724177,14.589612 6.8239175,14.755038 C 5.5426522,15.487066 5.1195964,16.951825 5.8734511,18.039866 C 6.477778,18.99026 7.8487585,19.571935 9.1998073,19.492834 C 11.246472,19.487835 13.293777,19.50296 15.340031,19.485043 C 17.036664,19.410939 18.490043,18.220973 18.497409,16.897196 C 18.554153,15.845588 17.673015,14.843007 16.445861,14.430786 C 16.482826,13.084966 15.229871,11.70809 13.461059,11.523873 C 13.316574,11.508017 13.170658,11.500119 13.024748,11.500126 z"
     id="path3184"
     style="opacity:0.6;fill:none;fill-opacity:1;fill-rule:nonzero;stroke:#3a3835;stroke-width:1.00000012;stroke-linecap:round;stroke-linejoin:miter;marker:none;marker-start:none;marker-mid:none;marker-end:none;stroke-miterlimit:4;stroke-dasharray:none;stroke-dashoffset:0;stroke-opacity:1;visibility:visible;display:inline;overflow:visible;enable-background:accumulate" />
  <path
     d="M 11,5.9999996 C 9.4490246,6.2603298 8.0385869,7.1823923 7.125,8.4687496 C 6.2115131,9.7551072 5.8347702,11.409877 6.09375,12.968749 C 6.1731793,13.446851 6.3080346,13.89936 6.5,14.343749 C 6.5431454,14.314878 6.5810403,14.277744 6.625,14.249999 C 6.6250001,13.523617 7.0250789,12.904434 7.53125,12.531249 C 8.0374211,12.158064 8.6750457,11.968749 9.34375,11.968749 C 9.6369896,11.968749 9.8815455,12.112634 10.15625,12.187499 C 10.468398,11.889795 10.83353,11.64186 11.21875,11.437499 C 11.058596,11.313483 10.92724,11.199137 10.84375,11.124999 C 9.6654774,10.078437 12.551076,5.7396695 11,5.9999996 z"
     id="path2876-6-6-4"
     style="fill:#eae3d1;fill-opacity:1;stroke:none;stroke-width:2;stroke-linecap:round;stroke-miterlimit:4;stroke-dasharray:none;stroke-dashoffset:0;stroke-opacity:1;display:inline" />
  <path
     d="M 13,11.999999 C 11.873696,11.999999 10.908797,12.531259 10.395833,13.296874 C 10.106987,13.116671 9.7381333,12.999999 9.3333333,12.999999 C 8.4133334,12.999999 7.6666667,13.559999 7.6666666,14.249999 C 7.6666666,14.404962 7.7020064,14.550521 7.7708333,14.687498 C 6.7244948,15.038139 6,15.832014 6,16.749998 C 6,17.996498 7.338,18.999999 9,18.999999 L 15,18.999999 C 16.662,18.999999 18,17.996498 18,16.749998 C 18,15.762662 17.15418,14.929482 15.979166,14.624999 C 15.981776,14.582286 16,14.54325 16,14.499999 C 16,13.119999 14.656,11.999999 13,11.999999 z"
     id="rect3193"
     style="fill:#eae3d1;fill-opacity:1;fill-rule:evenodd;stroke:none;stroke-width:4;stroke-linecap:butt;stroke-linejoin:miter;marker:none;marker-start:none;marker-mid:none;marker-end:none;stroke-miterlimit:4;stroke-dasharray:none;stroke-dashoffset:0;stroke-opacity:1;visibility:visible;display:inline;overflow:visible;enable-background:accumulate" />
</svg>

<?xml version="1.0" encoding="UTF-8" standalone="no"?>
<!-- Created with Inkscape (http://www.inkscape.org/) -->
<svg id="svg3186" xmlns="http://www.w3.org/2000/svg" height="24" width="24" version="1.0">
 <path id="path3184" style="opacity:.6;stroke:#3a3835;stroke-linecap:round;fill:none" d="m10.897 5.5122c-1.6902 0.2836-3.1984 1.2956-4.1862 2.6862-0.9919 1.3966-1.4055 3.1826-1.1246 4.8726 0.2801 1.686 1.2332 3.219 2.6241 4.217 1.3933 0.999 3.1897 1.407 4.8737 1.124 1.683-0.282 3.224-1.257 4.217-2.655 0.084-0.117 0.156-0.245 0.188-0.406 0.031-0.16-0.002-0.35-0.094-0.499-0.185-0.299-0.453-0.354-0.687-0.407-0.469-0.105-1.049-0.111-1.656-0.124-0.607-0.014-1.22-0.058-1.656-0.157-0.218-0.049-0.383-0.096-0.468-0.156-0.086-0.06-0.085-0.099-0.094-0.156h-0.031c0.005-1.011-0.299-1.771-0.688-2.249-0.407-0.501-0.883-0.795-0.937-0.843-0.093-0.083-0.165-0.357-0.094-0.8437 0.072-0.4863 0.248-1.0962 0.438-1.6867s0.393-1.1283 0.437-1.6242c0.022-0.248 0.01-0.5178-0.187-0.7809-0.198-0.2631-0.583-0.3614-0.875-0.3123zm2.128 5.9878c-1.147-0.01-2.199 0.551-2.78 1.299-1.024-0.545-2.5284-0.069-2.9106 0.819-0.3123 0.419 0.238 0.972-0.5105 1.137-1.2812 0.732-1.7043 2.197-0.9504 3.285 0.6043 0.95 1.9753 1.532 3.3263 1.453 2.0462-0.005 4.0942 0.01 6.1402-0.008 1.697-0.074 3.15-1.264 3.157-2.588 0.057-1.051-0.824-2.054-2.051-2.466 0.037-1.346-1.216-2.723-2.985-2.907-0.144-0.016-0.29-0.024-0.436-0.024z"/>
 <path id="path2876-6-6-4" style="fill:#eae3d1" d="m11 6c-1.551 0.2603-2.9614 1.1824-3.875 2.4687-0.9135 1.2864-1.2902 2.9413-1.0312 4.5003 0.0794 0.478 0.2142 0.93 0.4062 1.375 0.0431-0.029 0.081-0.066 0.125-0.094 0-0.726 0.4001-1.346 0.9062-1.719 0.5062-0.373 1.1438-0.562 1.8126-0.562 0.2932 0 0.5377 0.144 0.8122 0.218 0.312-0.297 0.678-0.545 1.063-0.75-0.16-0.124-0.292-0.238-0.375-0.312-1.1785-1.047 1.707-5.3853 0.156-5.125z"/>
 <path id="rect3193" style="fill-rule:evenodd;fill:#eae3d1" d="m13 12c-1.126 0-2.091 0.531-2.604 1.297-0.289-0.18-0.6579-0.297-1.0627-0.297-0.92 0-1.6666 0.56-1.6666 1.25 0 0.155 0.0353 0.301 0.1041 0.437-1.0463 0.351-1.7708 1.145-1.7708 2.063 0 1.246 1.338 2.25 3 2.25h6c1.662 0 3-1.004 3-2.25 0-0.987-0.846-1.821-2.021-2.125 0.003-0.043 0.021-0.082 0.021-0.125 0-1.38-1.344-2.5-3-2.5z"/>
</svg>
